X: 27702
T: Morning After Phil
R: reel
M: 4/4
K: Dmajor
|:"D" ABde fa (3(fed)|"A" e3 f edBA|"G" BFGA ~G3 F|GAGF GFED-|"D" D2 AD GAD(A|
"A/C#" A)DGA GFE(D|"C" D/)D/D AD GAde|1 "G/B" f z fg "G" fdBA:|2 "G/B" f z fg "G" fedB||
|:"Em" EABe d=cBA|"Am" (3(AB=c) BA BBAG|"Em" EABd =cBAG|"Am" B2 AG "Em" EAGE|
"D/F#" ~F3 D"G" ~G3 D|1 ~A3 B"D/F#" F2 z2|ABAG ABAG|"Bm" F4- FA (3(FED):|
[2 "^G" AGAB"D/F#" F2 z2|ABAG ABAG|"G/B" ABde "A" fa (3(fed)||

